Newaita/actions/24/kdenlive-split-audio.svg

<svg height="24" viewBox="0 0 24 24" width="24" xmlns="http://www.w3.org/2000/svg"><g fill="#424242"><path d="m15.378906 5.148438h.992188c.277344 0 .496094.222656.496094.496093v.992188c0 .273437-.21875.496093-.496094.496093h-.992188c-.273437 0-.496094-.222656-.496094-.496093v-.992188c0-.273437.222657-.496093.496094-.496093zm0 0"/><path d="m3.96875 9.117188h1.984375v-3.96875c0-.550782.441406-.992188.992187-.992188h9.921876c.550781 0 .992187.441406.992187.992188v3.96875h1.984375v-4.960938c0-1.097656-.882812-1.984375-1.984375-1.984375h-11.90625c-1.097656 0-1.984375.886719-1.984375 1.984375zm0 0"/><path d="m7.441406 5.148438h.992188c.273437 0 .496094.222656.496094.496093v.992188c0 .273437-.222657.496093-.496094.496093h-.992188c-.273437 0-.496094-.222656-.496094-.496093v-.992188c0-.273437.222657-.496093.496094-.496093zm0 0"/><path d="m1.984375 12.589844v-.992188c0-.273437.222656-.496094.496094-.496094h18.855469c.273437 0 .496093.222657.496093.496094v.992188c0 .273437-.222656.496094-.496093.496094h-18.855469c-.273438 0-.496094-.222657-.496094-.496094zm0 0"/><path d="m11.894531 15.054688c-.210937.003906-.394531.136718-.46875.332031l-1.839843 4.90625-2.1875-3.980469c-.089844-.15625-.25-.257812-.429688-.265625s-.351562.078125-.449219.226563l-.839843 1.261718h-1.710938c-.183594-.003906-.359375.09375-.453125.253906-.09375.160157-.09375.359376 0 .519532s.269531.257812.453125.253906h1.984375c.171875 0 .332031-.085938.429687-.226562l.519532-.785157 2.320312 4.21875c.097656.175781.289063.28125.488282.265625.203124-.015625.375-.144531.445312-.332031l1.777344-4.742187 1.484375 3.519531c.078125.183593.253906.304687.449219.316406.199218.007813.386718-.097656.480468-.273437l1.515625-2.84375 1.042969 2.085937c.082031.164063.242188.273437.425781.285156.183594.011719.359375-.074219.460938-.226562l.992187-1.488281c.105469-.15625.121094-.351563.039063-.519532-.082031-.167968-.246094-.277344-.433594-.289062-.183594-.007813-.359375.082031-.460937.234375l-.5.753906-1.09375-2.183594c-.085938-.175781-.261719-.285156-.453126-.285156-.191406-.003906-.371093.101563-.460937.269531l-1.476563 2.769532-1.5625-3.71875c-.082031-.195313-.277343-.320313-.488281-.3125zm0 0"/><path d="m2.480469 17.550781h1.488281c.273438 0 .496094.222657.496094.496094 0 .277344-.222656.496094-.496094.496094h-1.488281c-.273438 0-.496094-.21875-.496094-.496094 0-.273437.222656-.496094.496094-.496094zm0 0"/><path d="m18.355469 17.550781h2.980469c.273437 0 .496093.214844.496093.476563v.039062c0 .265625-.222656.476563-.496093.476563h-2.980469c-.273438 0-.496094-.210938-.496094-.476563v-.039062c0-.261719.222656-.476563.496094-.476563zm0 0"/></g></svg>

<?xml version="1.0" encoding="UTF-8"?>
<svg xmlns="http://www.w3.org/2000/svg" xmlns:xlink="http://www.w3.org/1999/xlink" width="24px" height="24px" viewBox="0 0 24 24" version="1.1">
<g id="surface1">
<path style=" stroke:none;fill-rule:nonzero;fill:rgb(25.882354%,25.882354%,25.882354%);fill-opacity:1;" d="M 15.378906 5.148438 L 16.371094 5.148438 C 16.648438 5.148438 16.867188 5.371094 16.867188 5.644531 L 16.867188 6.636719 C 16.867188 6.910156 16.648438 7.132812 16.371094 7.132812 L 15.378906 7.132812 C 15.105469 7.132812 14.882812 6.910156 14.882812 6.636719 L 14.882812 5.644531 C 14.882812 5.371094 15.105469 5.148438 15.378906 5.148438 Z M 15.378906 5.148438 "/>
<path style=" stroke:none;fill-rule:nonzero;fill:rgb(25.882354%,25.882354%,25.882354%);fill-opacity:1;" d="M 3.96875 9.117188 L 5.953125 9.117188 L 5.953125 5.148438 C 5.953125 4.597656 6.394531 4.15625 6.945312 4.15625 L 16.867188 4.15625 C 17.417969 4.15625 17.859375 4.597656 17.859375 5.148438 L 17.859375 9.117188 L 19.84375 9.117188 L 19.84375 4.15625 C 19.84375 3.058594 18.960938 2.171875 17.859375 2.171875 L 5.953125 2.171875 C 4.855469 2.171875 3.96875 3.058594 3.96875 4.15625 Z M 3.96875 9.117188 "/>
<path style=" stroke:none;fill-rule:nonzero;fill:rgb(25.882354%,25.882354%,25.882354%);fill-opacity:1;" d="M 7.441406 5.148438 L 8.433594 5.148438 C 8.707031 5.148438 8.929688 5.371094 8.929688 5.644531 L 8.929688 6.636719 C 8.929688 6.910156 8.707031 7.132812 8.433594 7.132812 L 7.441406 7.132812 C 7.167969 7.132812 6.945312 6.910156 6.945312 6.636719 L 6.945312 5.644531 C 6.945312 5.371094 7.167969 5.148438 7.441406 5.148438 Z M 7.441406 5.148438 "/>
<path style=" stroke:none;fill-rule:nonzero;fill:rgb(25.882354%,25.882354%,25.882354%);fill-opacity:1;" d="M 1.984375 12.589844 L 1.984375 11.597656 C 1.984375 11.324219 2.207031 11.101562 2.480469 11.101562 L 21.335938 11.101562 C 21.609375 11.101562 21.832031 11.324219 21.832031 11.597656 L 21.832031 12.589844 C 21.832031 12.863281 21.609375 13.085938 21.335938 13.085938 L 2.480469 13.085938 C 2.207031 13.085938 1.984375 12.863281 1.984375 12.589844 Z M 1.984375 12.589844 "/>
<path style=" stroke:none;fill-rule:nonzero;fill:rgb(25.882354%,25.882354%,25.882354%);fill-opacity:1;" d="M 11.894531 15.054688 C 11.683594 15.058594 11.5 15.191406 11.425781 15.386719 L 9.585938 20.292969 L 7.398438 16.3125 C 7.308594 16.15625 7.148438 16.054688 6.96875 16.046875 C 6.789062 16.039062 6.617188 16.125 6.519531 16.273438 L 5.679688 17.535156 L 3.96875 17.535156 C 3.785156 17.53125 3.609375 17.628906 3.515625 17.789062 C 3.421875 17.949219 3.421875 18.148438 3.515625 18.308594 C 3.609375 18.46875 3.785156 18.566406 3.96875 18.5625 L 5.953125 18.5625 C 6.125 18.5625 6.285156 18.476562 6.382812 18.335938 L 6.902344 17.550781 L 9.222656 21.769531 C 9.320312 21.945312 9.511719 22.050781 9.710938 22.035156 C 9.914062 22.019531 10.085938 21.890625 10.15625 21.703125 L 11.933594 16.960938 L 13.417969 20.480469 C 13.496094 20.664062 13.671875 20.785156 13.867188 20.796875 C 14.066406 20.804688 14.253906 20.699219 14.347656 20.523438 L 15.863281 17.679688 L 16.90625 19.765625 C 16.988281 19.929688 17.148438 20.039062 17.332031 20.050781 C 17.515625 20.0625 17.691406 19.976562 17.792969 19.824219 L 18.785156 18.335938 C 18.890625 18.179688 18.90625 17.984375 18.824219 17.816406 C 18.742188 17.648438 18.578125 17.539062 18.390625 17.527344 C 18.207031 17.519531 18.03125 17.609375 17.929688 17.761719 L 17.429688 18.515625 L 16.335938 16.332031 C 16.25 16.15625 16.074219 16.046875 15.882812 16.046875 C 15.691406 16.042969 15.511719 16.148438 15.421875 16.316406 L 13.945312 19.085938 L 12.382812 15.367188 C 12.300781 15.171875 12.105469 15.046875 11.894531 15.054688 Z M 11.894531 15.054688 "/>
<path style=" stroke:none;fill-rule:nonzero;fill:rgb(25.882354%,25.882354%,25.882354%);fill-opacity:1;" d="M 2.480469 17.550781 L 3.96875 17.550781 C 4.242188 17.550781 4.464844 17.773438 4.464844 18.046875 C 4.464844 18.324219 4.242188 18.542969 3.96875 18.542969 L 2.480469 18.542969 C 2.207031 18.542969 1.984375 18.324219 1.984375 18.046875 C 1.984375 17.773438 2.207031 17.550781 2.480469 17.550781 Z M 2.480469 17.550781 "/>
<path style=" stroke:none;fill-rule:nonzero;fill:rgb(25.882354%,25.882354%,25.882354%);fill-opacity:1;" d="M 18.355469 17.550781 L 21.335938 17.550781 C 21.609375 17.550781 21.832031 17.765625 21.832031 18.027344 L 21.832031 18.066406 C 21.832031 18.332031 21.609375 18.542969 21.335938 18.542969 L 18.355469 18.542969 C 18.082031 18.542969 17.859375 18.332031 17.859375 18.066406 L 17.859375 18.027344 C 17.859375 17.765625 18.082031 17.550781 18.355469 17.550781 Z M 18.355469 17.550781 "/>
</g>
</svg>
